images/icon-play.svg

<svg width="24" height="25" viewBox="0 0 24 25" fill="none" xmlns="http://www.w3.org/2000/svg">
<g filter="url(#filter0_b_604_49)">
<path d="M0 12.5C0 5.87258 5.37258 0.5 12 0.5C18.6274 0.5 24 5.87258 24 12.5C24 19.1274 18.6274 24.5 12 24.5C5.37258 24.5 0 19.1274 0 12.5Z" fill="white"/>
</g>
<path d="M8.99268 14.2144V10.68C8.99268 9.17335 8.99268 8.42001 9.48339 8.12962C9.97411 7.83922 10.6345 8.20177 11.9552 8.92688L14.9846 10.5901C16.3231 11.3249 16.9924 11.6924 17.0071 12.2668C17.0218 12.8412 16.3722 13.2424 15.0731 14.0448L12.0437 15.916C10.6936 16.7499 10.0185 17.1668 9.50559 16.8807C8.99268 16.5947 8.99268 15.8012 8.99268 14.2144Z" fill="#1D2130"/>
<defs>
<filter id="filter0_b_604_49" x="-80" y="-79.5" width="184" height="184" filterUnits="userSpaceOnUse" color-interpolation-filters="sRGB">
<feFlood flood-opacity="0" result="BackgroundImageFix"/>
<feGaussianBlur in="BackgroundImageFix" stdDeviation="40"/>
<feComposite in2="SourceAlpha" operator="in" result="effect1_backgroundBlur_604_49"/>
<feBlend mode="normal" in="SourceGraphic" in2="effect1_backgroundBlur_604_49" result="shape"/>
</filter>
</defs>
</svg>

<svg xmlns="http://www.w3.org/2000/svg" width="24" height="25" fill="none"><g filter="url(#a)"><path fill="#fff" d="M0 12.5C0 5.873 5.373.5 12 .5s12 5.373 12 12-5.373 12-12 12-12-5.373-12-12Z"/></g><path fill="#1D2130" d="M8.993 14.214V10.68c0-1.507 0-2.26.49-2.55.491-.29 1.151.072 2.472.797l3.03 1.663c1.338.735 2.007 1.102 2.022 1.677.015.574-.635.975-1.934 1.778l-3.03 1.871c-1.35.834-2.024 1.25-2.537.965-.513-.286-.513-1.08-.513-2.667Z"/><defs><filter id="a" width="184" height="184" x="-80" y="-79.5" color-interpolation-filters="sRGB" filterUnits="userSpaceOnUse"><feFlood flood-opacity="0" result="BackgroundImageFix"/><feGaussianBlur in="BackgroundImageFix" stdDeviation="40"/><feComposite in2="SourceAlpha" operator="in" result="effect1_backgroundBlur_604_49"/><feBlend in="SourceGraphic" in2="effect1_backgroundBlur_604_49" result="shape"/></filter></defs></svg>
